X: 21350
T: Kerry Cobbler, The
R: jig
M: 6/8
K: Dmajor
A|:ded fga|gaf ecA|ded fga|ecA ABc|
ded fga|gaf ecA|dfa gec|1 Adc d2 A:|2 Adc d2 e||
|:fed cAG|Add cAG|fed cAG|Ade f2 g|
agf gfe|dfe dcA|fed cAG|1 Adc d2 e:|2 Adc d2 A||
|:ded fga|gaf ecA|~d3 fg/g/a|ecA ABc|
dcd fga|ga/g/f ecA|dfa gec|1 Adc d2 A:|2 Adc d2 e||
|:fed cAG|Aed cAG|f{gf}ed cAG|Ade {a}f2 g|
agf gfe|dfe dcA|{a}fed cAG|1 Adc d2 e:|2 Adc d2 A||

